images/itechart.svg

<svg width="136" height="68" viewBox="0 0 136 68" fill="none" xmlns="http://www.w3.org/2000/svg">
<mask id="mask0_5_708" style="mask-type:luminance" maskUnits="userSpaceOnUse" x="20" y="25" width="96" height="18">
<path d="M116 25H20V43H116V25Z" fill="white"/>
</mask>
<g mask="url(#mask0_5_708)">
<path d="M99.2431 42.7256C98.6755 42.7256 98.1077 42.7177 97.5404 42.7302C97.3645 42.7343 97.2915 42.6771 97.2388 42.5124C96.8937 41.4319 96.5331 40.3544 96.189 39.2727C96.1374 39.1101 96.0647 39.0666 95.8999 39.0683C93.7433 39.074 91.5864 39.074 89.4294 39.0683C89.2467 39.0683 89.1796 39.1317 89.1295 39.2964C88.807 40.3593 88.4664 41.4173 88.1486 42.482C88.0885 42.6832 87.9985 42.734 87.7983 42.7323C86.6793 42.7226 85.5603 42.7276 84.4416 42.7276C84.1696 42.7276 84.1693 42.7276 84.259 42.4753L88.9911 29.2121C89.3404 28.2339 89.6895 27.2558 90.0385 26.2779C90.3443 25.4206 90.9318 25.0065 91.8382 25.0062C92.7303 25.0062 93.6221 25.0117 94.5139 25.0015C94.6921 24.9995 94.761 25.0599 94.8196 25.2211C96.913 30.9713 99.0096 36.7203 101.11 42.468C101.203 42.7247 101.203 42.725 100.921 42.725L99.2431 42.7256ZM92.6717 28.6211C92.6374 28.6795 92.6321 28.6859 92.6295 28.6932C91.8342 31.093 91.0386 33.4927 90.2426 35.8923C90.1696 36.1122 90.3191 36.0675 90.4308 36.0675C91.9145 36.0675 93.3978 36.0652 94.8815 36.0719C95.0811 36.0719 95.128 36.0407 95.0591 35.8342C94.4318 33.9557 93.8156 32.0733 93.1953 30.1927C93.0276 29.682 92.8561 29.1742 92.6717 28.6211Z" fill="#EC1D25"/>
<path d="M74.1277 30.7766C74.4059 30.3678 74.67 30.0265 75.0033 29.7449C75.9866 28.9139 77.1501 28.6645 78.4016 28.7097C80.6123 28.7918 83.0276 30.6771 83.3351 33.3552C83.3939 33.827 83.4258 34.3018 83.4307 34.7773C83.4307 37.3437 83.4324 39.91 83.4357 42.4761C83.4357 42.6668 83.4064 42.7339 83.1932 42.7313C82.1877 42.7179 81.1822 42.7196 80.177 42.7313C79.9896 42.7333 79.9547 42.6814 79.955 42.505C79.9615 40.205 79.9668 37.9051 79.955 35.6052C79.9509 34.8392 79.8932 34.0753 79.5232 33.3736C79.0668 32.508 78.4142 31.9027 77.3896 31.8305C75.8239 31.7202 74.758 32.4852 74.33 34.0061C74.1947 34.4879 74.1265 34.986 74.1274 35.4863C74.1274 37.8187 74.1245 40.151 74.1327 42.4831C74.1327 42.6834 74.0878 42.7339 73.8844 42.7316C72.8548 42.7196 71.8247 42.7225 70.7951 42.7298C70.6374 42.7298 70.5952 42.6907 70.5955 42.5318C70.5996 36.7618 70.5996 30.9917 70.5955 25.2216C70.5955 25.0572 70.633 24.9988 70.8086 25.0032C71.2946 25.0151 71.7813 25.0072 72.2679 25.0072C73.3799 25.0072 74.1227 25.7425 74.1262 26.8557C74.13 28.0661 74.1262 29.2766 74.1262 30.4873L74.1277 30.7766Z" fill="#010101"/>
<path d="M51.062 36.808C49.6507 36.808 48.2395 36.8118 46.8282 36.8037C46.621 36.8037 46.5735 36.8515 46.5996 37.06C46.6488 37.4525 46.6896 37.8447 46.8247 38.2194C47.3014 39.5407 48.272 40.0135 49.4754 39.9849C49.9628 39.9783 50.4416 39.8567 50.8726 39.6301C51.0872 39.5162 51.2763 39.3696 51.4041 39.1801C51.7409 38.6807 52.2138 38.488 52.7922 38.4877C53.5951 38.4877 54.3981 38.4924 55.2011 38.4836C55.3854 38.4816 55.3711 38.5566 55.333 38.6843C54.6614 40.9354 53.1616 42.3135 50.8679 42.8131C49.6164 43.085 48.3512 43.0718 47.1155 42.7077C45.4618 42.2203 44.2619 41.1623 43.6237 39.5854C42.6103 37.0822 42.5827 34.5224 43.6293 32.0274C44.4428 30.084 46.0124 29.0298 48.1081 28.7732C49.3535 28.6213 50.5856 28.7028 51.7726 29.1344C53.6473 29.8157 54.7176 31.2077 55.2436 33.0725C55.566 34.2196 55.6062 35.3941 55.5863 36.5747C55.583 36.7619 55.5077 36.8136 55.3195 36.8124C53.9009 36.8042 52.4803 36.808 51.062 36.808ZM49.2312 34.483H51.3235C51.8629 34.483 51.8702 34.483 51.7858 33.9588C51.6949 33.3952 51.5293 32.857 51.1212 32.431C50.2837 31.5567 48.6367 31.4489 47.6359 32.1956C46.9405 32.7142 46.6825 33.4457 46.5978 34.2689C46.5788 34.4532 46.6312 34.4859 46.7983 34.4844C47.6092 34.4792 48.4201 34.483 49.2312 34.483Z" fill="#010101"/>
<path d="M36.6737 35.4373C36.6737 33.105 36.6705 30.7723 36.679 28.44C36.679 28.2151 36.6383 28.1433 36.3941 28.1453C34.821 28.1582 33.2479 28.1491 31.6743 28.1555C31.4951 28.1555 31.4257 28.1263 31.4283 27.924C31.4409 27.0202 31.4386 26.1161 31.4298 25.2123C31.4298 25.0394 31.4799 24.9997 31.6476 25C35.7023 25.0047 39.7569 25.0062 43.8115 25.0047C44.8038 25.0047 45.6112 25.8247 45.6276 26.8377C45.6332 27.1925 45.6159 27.5484 45.6332 27.9027C45.6431 28.1018 45.5901 28.1582 45.3846 28.1567C43.9979 28.1474 42.6113 28.1518 41.2247 28.1518C40.9902 28.1518 40.7556 28.1585 40.5193 28.1494C40.3889 28.1442 40.3435 28.1921 40.3558 28.3162C40.3587 28.3726 40.3587 28.4291 40.3558 28.4855C40.3558 33.1424 40.3576 37.7992 40.3613 42.4557C40.3613 42.6811 40.2995 42.7299 40.0828 42.7275C39.0288 42.7163 37.9747 42.7163 36.9203 42.7275C36.7242 42.7296 36.6667 42.6908 36.6673 42.4831C36.6772 40.1344 36.6737 37.7857 36.6737 35.4373Z" fill="#010101"/>
<path d="M67.3024 33.192C66.7996 33.192 66.2963 33.1817 65.7941 33.1966C65.5848 33.2031 65.4649 33.1505 65.3646 32.9522C64.5584 31.3587 62.1546 31.4004 61.2209 32.438C60.7612 32.9481 60.5416 33.5684 60.4329 34.2263C60.2206 35.5112 60.2016 36.799 60.6017 38.0558C61.2358 40.0486 63.102 40.2906 64.5197 39.7311C64.8463 39.6021 65.1043 39.3883 65.3189 39.1211C65.6727 38.6805 66.1242 38.4743 66.6926 38.4836C67.4709 38.4962 68.2496 38.4915 69.0279 38.4836C69.2135 38.4816 69.2442 38.5274 69.1906 38.7026C68.4612 41.0829 66.8424 42.4551 64.3981 42.8709C63.2354 43.0689 62.0713 43.0403 60.9347 42.6928C59.1318 42.1417 57.9235 40.9313 57.3152 39.1924C56.5424 36.9815 56.521 34.7245 57.2888 32.5028C58.1037 30.1459 60.1063 28.765 62.6116 28.7171C63.6901 28.6961 64.7452 28.7915 65.7598 29.1799C67.4056 29.8098 68.3953 31.0413 68.9666 32.6526C69.1575 33.1905 69.1513 33.1928 68.5917 33.1928L67.3024 33.192Z" fill="#010101"/>
<path d="M110.294 32.794C110.294 30.2847 110.297 27.7753 110.289 25.2663C110.289 25.0517 110.341 24.9933 110.556 25.0006C111.066 25.0175 111.577 25.0059 112.088 25.0061C113.096 25.0061 113.87 25.7695 113.878 26.7766C113.884 27.4544 113.891 28.1325 113.873 28.8097C113.867 29.0433 113.946 29.0845 114.157 29.0792C114.699 29.0652 115.241 29.0792 115.786 29.071C115.943 29.0687 115.995 29.1093 115.991 29.2719C115.981 29.7801 115.958 30.2905 115.993 30.7966C116.067 31.8382 115.28 32.69 114.174 32.6705C113.925 32.6658 113.871 32.7329 113.873 32.9741C113.884 34.8784 113.879 36.7824 113.879 38.6866C113.879 39.3504 114.157 39.6348 114.832 39.6657C114.994 39.673 115.158 39.6684 115.316 39.6982C115.749 39.7805 115.961 40.0013 115.975 40.4393C115.996 41.1568 115.981 41.8752 115.99 42.5932C115.99 42.7299 115.915 42.7258 115.822 42.7319C114.778 42.7982 113.734 42.7643 112.691 42.696C112.417 42.6779 112.14 42.6709 111.87 42.6084C110.984 42.4022 110.451 41.7674 110.334 40.7792C110.305 40.539 110.291 40.2972 110.292 40.0553C110.294 37.6349 110.295 35.2144 110.294 32.794Z" fill="#EC1D25"/>
<path d="M105.265 38.8549C105.265 40.0735 105.262 41.2924 105.269 42.511C105.269 42.6754 105.235 42.7306 105.058 42.7294C103.979 42.721 102.901 42.721 101.822 42.7294C101.667 42.7294 101.619 42.6938 101.619 42.532C101.628 40.2075 101.605 37.8828 101.639 35.5589C101.662 33.9852 102.063 32.5123 103.089 31.2633C103.927 30.2413 105.038 29.6692 106.3 29.3427C107.264 29.093 108.244 29.0025 109.237 29.0165C109.36 29.0183 109.405 29.0478 109.404 29.1783C109.4 30.2921 109.4 31.4059 109.404 32.5199C109.404 32.6895 109.324 32.6922 109.197 32.6951C108.638 32.7056 108.076 32.6475 107.52 32.7322C106.071 32.9532 105.345 33.7618 105.272 35.2245C105.269 35.2727 105.265 35.3212 105.265 35.3706C105.265 36.5312 105.265 37.6927 105.265 38.8549Z" fill="#EC1D25"/>
<path d="M25.7311 36.1774C25.7311 34.0869 25.7343 31.9966 25.7258 29.906C25.7258 29.694 25.776 29.6397 25.9897 29.6432C27.0925 29.6552 28.1957 29.6514 29.2985 29.6456C29.4492 29.6456 29.5037 29.6733 29.5037 29.84C29.4994 34.0694 29.4996 38.2983 29.5043 42.5268C29.5043 42.6815 29.4685 42.7297 29.3061 42.7286C28.1872 42.7213 27.0679 42.7195 25.9486 42.7286C25.7563 42.7306 25.727 42.6669 25.7273 42.4949C25.733 40.3903 25.7342 38.2844 25.7311 36.1774Z" fill="#EC1D25"/>
<path d="M23.8146 31.5583C23.8146 32.1149 23.8093 32.6718 23.8178 33.2281C23.8202 33.3857 23.7944 33.4538 23.6126 33.4526C22.4778 33.4439 21.3427 33.4456 20.2079 33.4526C20.0546 33.4526 19.9983 33.419 20 33.2543C20.0088 32.5205 19.9953 31.7861 20.0062 31.0519C20.0203 30.1204 20.4873 29.6611 21.4251 29.6503C22.1547 29.6424 22.8844 29.6552 23.6138 29.6441C23.7955 29.6415 23.8219 29.7069 23.819 29.8652C23.8093 30.4288 23.8146 30.9935 23.8146 31.5583Z" fill="#EC1D25"/>
<path d="M21.9093 42.7257C21.3417 42.7257 20.7739 42.7213 20.2066 42.7286C20.0574 42.7301 19.9988 42.7024 19.9988 42.5342C20.007 41.4286 20.007 40.3231 19.9988 39.2177C19.9988 39.0548 20.0513 39.0171 20.206 39.0171C21.3411 39.0229 22.4763 39.0229 23.6116 39.0171C23.7655 39.0171 23.8198 39.0524 23.8186 39.216C23.8116 40.3215 23.8116 41.4271 23.8186 42.5327C23.8186 42.7 23.76 42.7292 23.6113 42.7272C23.0444 42.7205 22.4768 42.7257 21.9093 42.7257Z" fill="#EC1D25"/>
<path d="M27.5967 28.1539H25.9207C25.8249 28.1539 25.7243 28.1767 25.7264 28.019C25.7343 27.4145 25.7053 26.8083 25.7445 26.2061C25.795 25.4303 26.2359 25.027 27.0209 25.0089C27.7893 24.9928 28.5591 25.0086 29.3287 25.0039C29.4556 25.0039 29.4961 25.0427 29.4955 25.1695C29.4911 26.1127 29.4896 27.0559 29.4955 27.9991C29.4955 28.1624 29.4075 28.1557 29.297 28.1554C28.7306 28.1539 28.1637 28.1539 27.5967 28.1539Z" fill="#EC1D25"/>
</g>
</svg>

<svg xmlns="http://www.w3.org/2000/svg" width="136" height="68" fill="none"><mask id="a" width="96" height="18" x="20" y="25" maskUnits="userSpaceOnUse" style="mask-type:luminance"><path fill="#fff" d="M116 25H20v18h96V25Z"/></mask><g mask="url(#a)"><path fill="#EC1D25" d="M99.243 42.726c-.567 0-1.135-.008-1.703.004-.175.004-.249-.053-.301-.218-.345-1.08-.706-2.158-1.05-3.24-.052-.162-.124-.205-.29-.204-2.156.006-4.313.006-6.47 0-.182 0-.25.064-.3.228-.322 1.063-.663 2.121-.98 3.186-.06.201-.15.252-.35.25-1.12-.01-2.239-.004-3.357-.004-.272 0-.273 0-.183-.253l4.732-13.263 1.047-2.934c.306-.857.894-1.271 1.8-1.272.892 0 1.784.006 2.676-.005.178-.002.247.059.306.22 2.093 5.75 4.19 11.5 6.29 17.247.093.257.093.257-.189.257h-1.678ZM92.672 28.62c-.035.059-.04.065-.043.072l-2.386 7.2c-.073.22.076.175.188.175 1.484 0 2.967-.003 4.45.004.2 0 .247-.031.178-.238-.627-1.878-1.243-3.76-1.864-5.641-.167-.511-.339-1.019-.523-1.572Z"/><path fill="#010101" d="M74.128 30.777c.278-.41.542-.75.875-1.032.984-.831 2.147-1.08 3.399-1.035 2.21.082 4.626 1.967 4.933 4.645.059.472.09.947.096 1.422 0 2.567.001 5.133.005 7.7 0 .19-.03.257-.243.254a120.82 120.82 0 0 0-3.016 0c-.187.002-.222-.05-.222-.226.007-2.3.012-4.6 0-6.9-.004-.766-.062-1.53-.432-2.231-.456-.866-1.109-1.471-2.133-1.544-1.566-.11-2.632.655-3.06 2.176-.135.482-.204.98-.203 1.48 0 2.333-.002 4.665.006 6.997 0 .2-.045.25-.249.249-1.03-.012-2.06-.01-3.089-.002-.158 0-.2-.04-.2-.198.005-5.77.005-11.54 0-17.31 0-.165.038-.223.214-.219.486.012.972.004 1.459.004 1.112 0 1.855.735 1.858 1.849.004 1.21 0 2.42 0 3.631l.002.29ZM51.062 36.808c-1.411 0-2.822.004-4.234-.004-.207 0-.255.047-.228.256.049.392.09.785.225 1.16.476 1.32 1.447 1.794 2.65 1.765a3.093 3.093 0 0 0 1.398-.355c.214-.114.403-.26.531-.45.337-.5.81-.692 1.388-.692.803 0 1.606.004 2.41-.004.183-.002.17.073.131.2-.672 2.251-2.171 3.63-4.465 4.13-1.252.271-2.517.258-3.753-.106-1.653-.488-2.853-1.546-3.491-3.123-1.014-2.503-1.041-5.063.005-7.558.814-1.943 2.383-2.997 4.48-3.254 1.244-.152 2.477-.07 3.664.361 1.874.682 2.945 2.074 3.47 3.938.323 1.148.363 2.322.343 3.503-.003.187-.078.239-.267.237-1.418-.008-2.839-.004-4.257-.004Zm-1.83-2.325h2.092c.539 0 .546 0 .462-.524-.091-.564-.257-1.102-.665-1.528-.837-.874-2.484-.982-3.485-.235-.696.518-.954 1.25-1.038 2.073-.02.184.033.217.2.215.811-.005 1.622-.001 2.433-.001Z"/><path fill="#010101" d="M36.674 35.437c0-2.332-.004-4.665.005-6.997 0-.225-.04-.297-.285-.295-1.573.013-3.146.004-4.72.01-.179 0-.248-.029-.246-.231.013-.904.01-1.808.002-2.712 0-.173.05-.212.218-.212 4.054.005 8.109.006 12.164.005.992 0 1.8.82 1.816 1.833.005.354-.012.71.005 1.065.01.199-.043.255-.248.254-1.387-.01-2.774-.005-4.16-.005-.235 0-.47.006-.706-.003-.13-.005-.175.043-.163.167a17581.823 17581.823 0 0 0 .005 14.14c0 .225-.062.274-.278.271a148.835 148.835 0 0 0-3.163 0c-.196.003-.253-.036-.253-.244.01-2.349.007-4.697.007-7.046ZM67.302 33.192c-.502 0-1.006-.01-1.508.005-.21.006-.33-.047-.43-.245-.806-1.593-3.21-1.552-4.143-.514-.46.51-.68 1.13-.788 1.788-.212 1.285-.231 2.573.169 3.83.634 1.993 2.5 2.235 3.918 1.675.326-.129.584-.343.799-.61.354-.44.805-.647 1.374-.637a88.68 88.68 0 0 0 2.335 0c.185-.002.216.043.163.219-.73 2.38-2.349 3.752-4.793 4.168-1.163.198-2.327.17-3.463-.178-1.803-.551-3.012-1.762-3.62-3.5-.773-2.212-.794-4.468-.026-6.69.815-2.357 2.817-3.738 5.323-3.786 1.078-.02 2.133.075 3.148.463 1.646.63 2.635 1.861 3.207 3.473.19.538.184.54-.375.54l-1.29-.001Z"/><path fill="#EC1D25" d="M110.294 32.794c0-2.51.003-5.019-.005-7.528 0-.214.052-.273.267-.265.51.016 1.021.005 1.532.005 1.008 0 1.782.764 1.79 1.77.006.678.013 1.357-.005 2.034-.006.233.073.274.284.27.542-.015 1.084 0 1.629-.009.157-.002.209.038.205.2-.01.51-.033 1.02.002 1.526.074 1.041-.713 1.893-1.819 1.873-.249-.004-.303.063-.301.304.011 1.904.006 3.808.006 5.713 0 .663.278.948.953.979.162.007.326.002.484.032.433.083.645.303.659.741.021.718.006 1.436.015 2.154 0 .137-.075.133-.168.139-1.044.066-2.088.032-3.131-.036-.274-.018-.551-.025-.821-.088-.886-.206-1.419-.84-1.536-1.829a5.838 5.838 0 0 1-.042-.724c.002-2.42.003-4.84.002-7.261ZM105.265 38.855c0 1.219-.003 2.437.004 3.656 0 .164-.034.22-.211.218a207.775 207.775 0 0 0-3.236 0c-.155 0-.203-.035-.203-.197.009-2.324-.014-4.65.02-6.973.023-1.574.424-3.047 1.45-4.296.838-1.022 1.949-1.594 3.211-1.92.964-.25 1.944-.34 2.937-.326.123.001.168.03.167.161a465.264 465.264 0 0 0 0 3.342c0 .17-.08.172-.207.175-.559.01-1.121-.047-1.677.037-1.449.221-2.175 1.03-2.248 2.492-.003.049-.007.097-.007.147v3.484ZM25.731 36.177c0-2.09.003-4.18-.005-6.271 0-.212.05-.266.264-.263 1.103.012 2.206.008 3.309.003.15 0 .205.027.205.194-.005 4.23-.004 8.458 0 12.687 0 .154-.036.203-.198.202-1.119-.008-2.238-.01-3.357 0-.193.002-.222-.062-.222-.234.006-2.105.007-4.21.004-6.318ZM23.815 31.558c0 .557-.006 1.114.003 1.67.002.158-.024.226-.205.225-1.135-.01-2.27-.007-3.405 0-.153 0-.21-.034-.208-.199.009-.733-.005-1.468.006-2.202.014-.932.481-1.39 1.42-1.402.729-.008 1.458.005 2.188-.006.181-.002.208.063.205.221-.01.564-.004 1.129-.004 1.693ZM21.91 42.726c-.568 0-1.136-.005-1.703.003-.15.001-.208-.027-.208-.195.008-1.105.008-2.21 0-3.316 0-.163.052-.2.207-.2 1.135.005 2.27.005 3.406 0 .154 0 .208.034.207.198a261.92 261.92 0 0 0 0 3.317c0 .167-.059.196-.208.194-.567-.006-1.134-.001-1.702-.001ZM27.597 28.154H25.92c-.096 0-.197.023-.195-.135.008-.604-.02-1.21.018-1.813.051-.776.492-1.179 1.277-1.197.768-.016 1.538 0 2.308-.005.127 0 .167.039.166.165-.004.944-.005 1.887 0 2.83 0 .163-.088.157-.198.156l-1.7-.001Z"/></g></svg>
